icons/chart-cured-increasing_fill.svg

<svg width="48" height="48" viewBox="0 0 48 48" fill="none" xmlns="http://www.w3.org/2000/svg">
<path d="M27.8954 30.4676C23.406 33.6319 17.6037 35 11.0523 35H8V6H6V41C6 41.5523 6.44772 42 7 42H42V40H8V37H11.0523C17.8585 37 24.1117 35.5814 29.0476 32.1024C33.6809 28.8367 37.057 23.8232 38.6696 16.7124L40.1146 19.4648C40.3713 19.9538 40.9758 20.1421 41.4648 19.8854C41.9538 19.6287 42.1421 19.0242 41.8854 18.5352L39.2604 13.5352C39.1276 13.2822 38.893 13.0982 38.6157 13.0294C38.3385 12.9606 38.0451 13.0137 37.8095 13.1753L33.4345 16.1753C32.979 16.4876 32.8629 17.11 33.1753 17.5655C33.4876 18.021 34.11 18.1371 34.5655 17.8247L36.6981 16.3624C35.1717 23.0109 32.0479 27.5408 27.8954 30.4676Z" fill="black"/>
<path d="M27 13.8571C27 13.453 26.8395 13.0654 26.5537 12.7796C26.2679 12.4939 25.8803 12.3333 25.4762 12.3333H21.6667V8.52381C21.6667 8.11967 21.5061 7.73208 21.2204 7.44631C20.9346 7.16054 20.547 7 20.1429 7H17.8571C17.453 7 17.0654 7.16054 16.7796 7.44631C16.4939 7.73208 16.3333 8.11967 16.3333 8.52381V12.3333H12.5238C12.1197 12.3333 11.7321 12.4939 11.4463 12.7796C11.1605 13.0654 11 13.453 11 13.8571V16.1429C11 16.547 11.1605 16.9346 11.4463 17.2204C11.7321 17.5061 12.1197 17.6667 12.5238 17.6667H16.3333V21.4762C16.3333 21.8803 16.4939 22.2679 16.7796 22.5537C17.0654 22.8395 17.453 23 17.8571 23H20.1429C20.547 23 20.9346 22.8395 21.2204 22.5537C21.5061 22.2679 21.6667 21.8803 21.6667 21.4762V17.6667H25.4762C25.8803 17.6667 26.2679 17.5061 26.5537 17.2204C26.8395 16.9346 27 16.547 27 16.1429V13.8571Z" fill="black"/>
</svg>

<svg
  xmlns="http://www.w3.org/2000/svg"
  width="24"
  height="24"
  viewBox="0 0 24 24"
  fill="none"
  stroke="currentColor"
  stroke-width="2"
  stroke-linecap="round"
  stroke-linejoin="round"
>
  <path d="M27.895 30.468C23.406 33.632 17.604 35 11.052 35H8V6H6v35a1 1 0 0 0 1 1h35v-2H8v-3h3.052c6.807 0 13.06-1.419 17.996-4.898 4.633-3.265 8.009-8.279 9.622-15.39l1.445 2.753a1 1 0 1 0 1.77-.93l-2.625-5a1 1 0 0 0-1.45-.36l-4.376 3a1 1 0 1 0 1.132 1.65l2.132-1.463c-1.526 6.649-4.65 11.179-8.803 14.106" />
  <path d="M27 13.857a1.524 1.524 0 0 0-1.524-1.524h-3.81v-3.81A1.524 1.524 0 0 0 20.144 7h-2.286a1.524 1.524 0 0 0-1.524 1.524v3.81h-3.81A1.524 1.524 0 0 0 11 13.856v2.286a1.524 1.524 0 0 0 1.524 1.524h3.81v3.81A1.524 1.524 0 0 0 17.856 23h2.286a1.524 1.524 0 0 0 1.524-1.524v-3.81h3.81A1.524 1.524 0 0 0 27 16.144z" />
</svg>
